Newaita-dark/actions/16/draw-donut.svg

<?xml version="1.0" encoding="UTF-8"?>
<svg xmlns="http://www.w3.org/2000/svg" xmlns:xlink="http://www.w3.org/1999/xlink" width="16pt" height="16pt" viewBox="0 0 16 16" version="1.1">
<g id="surface1">
<path style=" stroke:none;fill-rule:nonzero;fill:rgb(74.117649%,74.117649%,74.117649%);fill-opacity:1;" d="M 7.9375 0.785156 C 3.90625 0.785156 0.660156 4.03125 0.660156 8.0625 C 0.660156 12.09375 3.90625 15.339844 7.9375 15.339844 C 11.96875 15.339844 15.214844 12.09375 15.214844 8.0625 C 15.214844 4.03125 11.96875 0.785156 7.9375 0.785156 Z M 7.9375 1.777344 C 11.417969 1.777344 14.222656 4.582031 14.222656 8.0625 C 14.222656 11.542969 11.417969 14.347656 7.9375 14.347656 C 4.457031 14.347656 1.652344 11.542969 1.652344 8.0625 C 1.652344 4.582031 4.457031 1.777344 7.9375 1.777344 Z M 7.9375 1.777344 "/>
<path style=" stroke:none;fill-rule:nonzero;fill:rgb(74.117649%,74.117649%,74.117649%);fill-opacity:1;" d="M 7.9375 4.753906 C 6.105469 4.753906 4.628906 6.230469 4.628906 8.0625 C 4.628906 9.894531 6.105469 11.371094 7.9375 11.371094 C 9.769531 11.371094 11.246094 9.894531 11.246094 8.0625 C 11.246094 6.230469 9.769531 4.753906 7.9375 4.753906 Z M 7.9375 6.078125 C 9.039062 6.078125 9.921875 6.964844 9.921875 8.0625 C 9.921875 9.164062 9.039062 10.046875 7.9375 10.046875 C 6.839844 10.046875 5.953125 9.164062 5.953125 8.0625 C 5.953125 6.964844 6.839844 6.078125 7.9375 6.078125 Z M 7.9375 6.078125 "/>
</g>
</svg>

<svg xmlns="http://www.w3.org/2000/svg" width="16pt" height="16pt" viewBox="0 0 16 16"><g fill="#bdbdbd"><path d="M7.938.785A7.262 7.262 0 0 0 .66 8.062a7.262 7.262 0 0 0 7.277 7.278 7.262 7.262 0 0 0 7.278-7.277A7.262 7.262 0 0 0 7.938.785zm0 .992a6.273 6.273 0 0 1 6.285 6.285 6.273 6.273 0 0 1-6.286 6.286 6.273 6.273 0 0 1-6.285-6.286 6.273 6.273 0 0 1 6.285-6.285zm0 0"/><path d="M7.938 4.754a3.303 3.303 0 0 0-3.31 3.309 3.303 3.303 0 0 0 3.31 3.308 3.303 3.303 0 0 0 3.308-3.309 3.303 3.303 0 0 0-3.309-3.308zm0 1.324a1.98 1.98 0 0 1 1.984 1.984 1.977 1.977 0 0 1-1.985 1.985 1.98 1.98 0 0 1-1.984-1.985c0-1.097.887-1.984 1.984-1.984zm0 0"/></g></svg>
